icons/gift-16.svg

<svg width="16" height="16" viewBox="0 0 16 16" xmlns="http://www.w3.org/2000/svg">
  <path fill-rule="evenodd" clip-rule="evenodd" d="M4.75 1.5C4.05964 1.5 3.5 2.05964 3.5 2.75C3.5 3.44036 4.05964 4 4.75 4H7.05874C6.82579 3.18244 6.51662 2.59892 6.18056 2.20684C5.75052 1.70513 5.26611 1.5 4.75 1.5ZM2 2.75C2 3.20011 2.10814 3.62497 2.29985 4H1.75C0.783502 4 0 4.7835 0 5.75V7.75C0 8.4481 0.408763 9.05073 1 9.33159V14.25C1 15.2165 1.7835 16 2.75 16H13.25C14.2165 16 15 15.2165 15 14.25V9.33159C15.5912 9.05073 16 8.4481 16 7.75V5.75C16 4.7835 15.2165 4 14.25 4H13.7001C13.8919 3.62497 14 3.20011 14 2.75C14 1.23122 12.7688 0 11.25 0C10.2661 0 9.37552 0.419865 8.68056 1.23066C8.42475 1.5291 8.19773 1.87723 8 2.27304C7.80227 1.87723 7.57525 1.5291 7.31944 1.23066C6.62448 0.419865 5.73389 0 4.75 0C3.23122 0 2 1.23122 2 2.75ZM8.94127 4H11.25C11.9404 4 12.5 3.44036 12.5 2.75C12.5 2.05964 11.9404 1.5 11.25 1.5C10.7339 1.5 10.2495 1.70513 9.81944 2.20684C9.48338 2.59892 9.17421 3.18244 8.94127 4ZM7.10134 5.5H4.75H1.75C1.61193 5.5 1.5 5.61193 1.5 5.75V7.75C1.5 7.88807 1.61193 8 1.75 8H7.25V5.5H7.10134ZM8.75 5.5V8H14.25C14.3881 8 14.5 7.88807 14.5 7.75V5.75C14.5 5.61193 14.3881 5.5 14.25 5.5H11.25H8.89866H8.75ZM8.75 9.5H13.5V14.25C13.5 14.3881 13.3881 14.5 13.25 14.5H8.75V9.5ZM7.25 9.5V14.5H2.75C2.61193 14.5 2.5 14.3881 2.5 14.25V9.5H7.25Z"/>
</svg>

<svg xmlns="http://www.w3.org/2000/svg" width="16" height="16" viewBox="0 0 16 16"><path fill-rule="evenodd" d="M4.75 1.5a1.25 1.25 0 100 2.5h2.309c-.233-.818-.542-1.401-.878-1.793-.43-.502-.915-.707-1.431-.707zM2 2.75c0 .45.108.875.3 1.25h-.55A1.75 1.75 0 000 5.75v2c0 .698.409 1.3 1 1.582v4.918c0 .966.784 1.75 1.75 1.75h10.5A1.75 1.75 0 0015 14.25V9.332c.591-.281 1-.884 1-1.582v-2A1.75 1.75 0 0014.25 4h-.55a2.75 2.75 0 00-2.45-4c-.984 0-1.874.42-2.57 1.23A5.086 5.086 0 008 2.274a5.086 5.086 0 00-.68-1.042C6.623.42 5.733 0 4.75 0A2.75 2.75 0 002 2.75zM8.941 4h2.309a1.25 1.25 0 100-2.5c-.516 0-1 .205-1.43.707-.337.392-.646.975-.879 1.793zm-1.84 1.5H1.75a.25.25 0 00-.25.25v2c0 .138.112.25.25.25h5.5V5.5h-.149zm1.649 0V8h5.5a.25.25 0 00.25-.25v-2a.25.25 0 00-.25-.25h-5.5zm0 4h4.75v4.75a.25.25 0 01-.25.25h-4.5v-5zm-1.5 0v5h-4.5a.25.25 0 01-.25-.25V9.5h4.75z"/></svg>
